; generated by PrusaSlicer 2.4.2+win64 on 2022-06-09 at 22:21:38 UTC


;
;
; 

; external perimeters extrusion width = 0.45mm
; perimeters extrusion width = 0.45mm
; infill extrusion width = 0.45mm
; solid infill extrusion width = 0.45mm
; top infill extrusion width = 0.40mm
; first layer extrusion width = 0.42mm

M73 P0 R114
M73 Q0 S113
M201 X1000 Y1000 Z200 E5000 ; sets maximum accelerations, mm/sec^2
M203 X200 Y200 Z12 E120 ; sets maximum feedrates, mm / sec
M204 P1250 R1250 T1250 ; sets acceleration (P, T) and retract acceleration (R), mm/sec^2
M205 X8.00 Y8.00 Z0.40 E4.50 ; sets the jerk limits, mm/sec
M205 S0 T0 ; sets the minimum extruding and travel feed rate, mm/sec
M107
;TYPE:Custom
M862.3 P "MK3S" ; printer model check
M862.1 P0.4 ; nozzle diameter check
M115 U3.11.0 ; tell printer latest fw version
G90 ; use absolute coordinates
M83 ; extruder relative mode
M104 S215 ; set extruder temp
M140 S60 ; set bed temp
M190 S60 ; wait for bed temp
M109 S215 ; wait for extruder temp
G28 W ; home all without mesh bed level
G80 ; mesh bed leveling
G1 Z0.2 F720
G1 Y-3 F1000 ; go outside print area
G92 E0
G1 X60 E9 F1000 ; intro line
G1 X100 E12.5 F1000 ; intro line
G92 E0
M221 S95

; Don't change E values below. Excessive value can damage the printer.

M907 E538 ; set extruder motor current
G21 ; set units to millimeters
G90 ; use absolute coordinates
M83 ; use relative distances for extrusion
M900 K0.05 ; Filament gcode LA 1.5
M900 K30 ; Filament gcode LA 1.0
M107
;LAYER_CHANGE
;Z:0.2
;HEIGHT:0.2
;BEFORE_LAYER_CHANGE
G92 E0.0
;0.2


M73 P0 R113
G1 E-.8 F2100
G1 Z.4 F720
;AFTER_LAYER_CHANGE
;0.2
G1 X38.92 Y48.853 F10800
G1 Z.2 F720
G1 E.8 F2100
M204 S800
;TYPE:Skirt/Brim
;WIDTH:0.42
G1 F1200
G1 X40.59 Y47.864 E.06087
G1 X42.395 Y47.148 E.06087
G1 X44.289 Y46.723 E.06087
G1 X45.913 Y46.596 E.0511
G1 X194.364 Y38.748 E4.66106
G1 X196.847 Y38.931 E.07806
G1 X199.037 Y39.327 E.06978
G1 X201.426 Y40.026 E.07806
G1 X202.315 Y40.388 E.03009
G1 X203.961 Y41.103 E.05626
G1 X206.122 Y42.338 E.07806
G1 X208.134 Y43.806 E.07806
G1 X209.783 Y45.299 E.06978
G1 X211.607 Y47.363 E.08634
G1 X213.026 Y49.409 E.07806
G1 X214.209 Y51.6 E.07806
G1 X215.141 Y53.908 E.07806
G1 X215.752 Y56.048 E.06978
G1 X216.21 Y58.763 E.08634
G1 X216.337 Y61.118 E.07393
G1 X216.337 Y136.819 E2.37355
G1 X216.208 Y139.187 E.07437
G1 X215.804 Y141.659 E.07853
G1 X215.127 Y144.07 E.07853
G1 X214.184 Y146.39 E.07853
G1 X212.987 Y148.59 E.07853
G1 X211.552 Y150.643 E.07853
G1 X209.897 Y152.522 E.07853
G1 X208.042 Y154.205 E.07853
G1 X206.011 Y155.67 E.07853
G1 X203.589 Y157.015 E.08686
G1 X201.271 Y157.964 E.07853
G1 X198.992 Y158.623 E.07437
G1 X146.727 Y170.685 E1.68182
G1 X145.154 Y170.987 E.05022
G1 X143.475 Y171.185 E.05303
G1 X141.695 Y171.258 E.05585
G1 X112.773 Y171.205 E.90685
G1 X111.182 Y171.04 E.05015
G1 X109.523 Y170.745 E.05282
G1 X51.276 Y158.055 E1.86913
G1 X48.969 Y157.418 E.07505
G1 X46.377 Y156.371 E.08765
G1 X44.163 Y155.152 E.07925
G1 X42.311 Y153.858 E.07084
G1 X40.215 Y152.008 E.08765
G1 X38.532 Y150.122 E.07925
G1 X37.217 Y148.286 E.07084
G1 X35.973 Y146.086 E.07925
G1 X34.896 Y143.506 E.08765
G1 X34.134 Y140.657 E.09246
G1 X33.794 Y138.581 E.06596
G1 X33.666 Y136.325 E.07084
G1 X33.663 Y58.97 E2.42543
G1 X33.793 Y57.219 E.05505
G1 X34.218 Y55.325 E.06087
G1 X35.103 Y53.188 E.07252
G1 X36.142 Y51.548 E.06087
G1 X37.161 Y50.355 E.0492
G1 X38.874 Y48.892 E.07064
M204 S1000
; printing object Left_1mm6_rev2.stl id:0 copy 0
;WIPE_START
G1 F8640
G1 X40.59 Y47.864 E-.4619
G1 X41.79 Y47.388 E-.2981
;WIPE_END
G1 E-.04 F2100
G1 Z.6 F720
G1 X123.669 Y110.007 F10800
G1 Z.2 F720
G1 E.8 F2100
M204 S800
;TYPE:Perimeter
G1 F1200
G1 X123.875 Y109.739 E.01059
G1 X124.143 Y109.533 E.01059
G1 X124.455 Y109.404 E.01059
G1 X124.738 Y109.367 E.00896
G1 X137.841 Y109.367 E.41084
G1 X138.125 Y109.404 E.00896
G1 X138.437 Y109.533 E.01059
G1 X138.704 Y109.739 E.01059
G1 X138.91 Y110.007 E.01059
G1 X139.039 Y110.319 E.01059
G1 X139.077 Y110.602 E.00896
G1 X139.077 Y123.705 E.41084
G1 X139.039 Y123.989 E.00896
G1 X138.91 Y124.301 E.01059
G1 X138.705 Y124.569 E.01059
G1 X138.437 Y124.774 E.01059
G1 X138.124 Y124.903 E.01059
G1 X137.841 Y124.941 E.00896
G1 X124.738 Y124.941 E.41084
G1 X124.455 Y124.903 E.00896
G1 X124.143 Y124.774 E.01059
G1 X123.875 Y124.569 E.01059
G1 X123.669 Y124.301 E.01059
G1 X123.54 Y123.989 E.01059
G1 X123.503 Y123.705 E.00896
G1 X123.503 Y110.602 E.41084
G1 X123.54 Y110.319 E.00896
G1 X123.646 Y110.062 E.00871
M204 S1000
G1 X123.998 Y110.197 F10800
M204 S800
;TYPE:External perimeter
G1 F1200
G1 X124.144 Y110.008 E.00748
G1 X124.333 Y109.863 E.00748
G1 X124.553 Y109.771 E.00748
G1 X124.763 Y109.744 E.00663
G1 X137.816 Y109.744 E.40929
G1 X138.026 Y109.771 E.00663
G1 X138.246 Y109.863 E.00748
G1 X138.436 Y110.008 E.00748
G1 X138.581 Y110.197 E.00748
G1 X138.672 Y110.417 E.00748
G1 X138.7 Y110.627 E.00663
G1 X138.7 Y123.681 E.40929
G1 X138.672 Y123.89 E.00663
G1 X138.581 Y124.11 E.00748
G1 X138.436 Y124.3 E.00748
G1 X138.246 Y124.445 E.00748
G1 X138.026 Y124.536 E.00748
G1 X137.816 Y124.564 E.00663
G1 X124.763 Y124.564 E.40929
G1 X124.553 Y124.536 E.00663
G1 X124.333 Y124.445 E.00748
G1 X124.144 Y124.3 E.00748
G1 X123.998 Y124.11 E.00748
G1 X123.907 Y123.89 E.00748
G1 X123.88 Y123.681 E.00663
G1 X123.88 Y110.627 E.40929
G1 X123.907 Y110.417 E.00663
G1 X123.975 Y110.252 E.0056
M204 S1000
G1 X123.88 Y109.99 F10800
;WIPE_START
G1 F8640
G1 X124.144 Y110.008 E-.06854
G1 X124.333 Y109.863 E-.05507
G1 X124.553 Y109.771 E-.05506
G1 X124.763 Y109.744 E-.04881
G1 X127.069 Y109.744 E-.53252
;WIPE_END
G1 E-.04 F2100
G1 Z.6 F720
G1 X124.568 Y105.868 F10800
G1 Z.2 F720
G1 E.8 F2100
M204 S800
;TYPE:Perimeter
G1 F1200
G1 X124.455 Y105.853 E.00359
G1 X124.143 Y105.724 E.01059
G1 X123.875 Y105.519 E.01059
G1 X123.669 Y105.251 E.01059
G1 X123.54 Y104.939 E.01059
G1 X123.503 Y104.655 E.00896
G1 X123.503 Y91.552 E.41084
G1 X123.54 Y91.269 E.00896
G1 X123.669 Y90.957 E.01059
G1 X123.875 Y90.689 E.01059
G1 X124.143 Y90.483 E.01059
G1 X124.455 Y90.354 E.01059
G1 X124.738 Y90.317 E.00896
G1 X137.841 Y90.317 E.41084
G1 X138.124 Y90.354 E.00896
G1 X138.437 Y90.483 E.01059
G1 X138.705 Y90.689 E.01059
G1 X138.91 Y90.957 E.01059
G1 X139.039 Y91.269 E.01059
G1 X139.077 Y91.552 E.00896
G1 X139.077 Y104.655 E.41084
G1 X139.039 Y104.939 E.00896
G1 X138.91 Y105.251 E.01059
G1 X138.705 Y105.519 E.01059
G1 X138.437 Y105.724 E.01059
G1 X138.124 Y105.853 E.01059
G1 X137.841 Y105.891 E.00896
G1 X124.738 Y105.891 E.41084
G1 X124.628 Y105.876 E.00349
M204 S1000
G1 X124.617 Y105.495 F10800
M204 S800
;TYPE:External perimeter
G1 F1200
G1 X124.553 Y105.486 E.00203
G1 X124.333 Y105.395 E.00748
G1 X124.144 Y105.25 E.00748
G1 X123.998 Y105.06 E.00748
G1 X123.907 Y104.84 E.00748
G1 X123.88 Y104.631 E.00663
G1 X123.88 Y91.577 E.40929
G1 X123.907 Y91.367 E.00663
G1 X123.998 Y91.147 E.00748
G1 X124.144 Y90.958 E.00748
G1 X124.333 Y90.813 E.00748
G1 X124.553 Y90.721 E.00748
G1 X124.763 Y90.694 E.00663
G1 X137.816 Y90.694 E.40929
G1 X138.026 Y90.721 E.00663
G1 X138.246 Y90.813 E.00748
G1 X138.436 Y90.958 E.00748
G1 X138.581 Y91.147 E.00748
G1 X138.672 Y91.367 E.00748
G1 X138.7 Y91.577 E.00663
G1 X138.7 Y104.631 E.40929
G1 X138.672 Y104.84 E.00663
G1 X138.581 Y105.06 E.00748
G1 X138.436 Y105.25 E.00748
G1 X138.246 Y105.395 E.00748
G1 X138.026 Y105.486 E.00748
G1 X137.816 Y105.514 E.00663
G1 X124.677 Y105.502 E.41198
M204 S1000
G1 X124.58 Y105.548 F10800
;WIPE_START
G1 F8640
G1 X124.553 Y105.486 E-.02883
G1 X124.333 Y105.395 E-.05507
G1 X124.144 Y105.25 E-.05507
G1 X123.998 Y105.06 E-.05507
G1 X123.907 Y104.84 E-.05507
G1 X123.88 Y104.631 E-.04881
G1 X123.88 Y102.629 E-.46209
;WIPE_END
G1 E-.04 F2100
G1 Z.6 F720
G1 X119.655 Y100.756 F10800
G1 Z.2 F720
G1 E.8 F2100
M204 S800
;TYPE:Perimeter
G1 F1200
G1 X119.387 Y100.962 E.01059
G1 X119.074 Y101.091 E.01059
G1 X118.791 Y101.128 E.00896
G1 X105.688 Y101.128 E.41084
G1 X105.405 Y101.091 E.00896
G1 X105.093 Y100.962 E.01059
G1 X104.825 Y100.756 E.01059
G1 X104.619 Y100.488 E.01059
G1 X104.49 Y100.176 E.01059
G1 X104.453 Y99.893 E.00896
G1 X104.453 Y86.79 E.41084
G1 X104.49 Y86.506 E.00896
G1 X104.619 Y86.194 E.01059
G1 X104.825 Y85.926 E.01059
G1 X105.093 Y85.721 E.01059
G1 X105.405 Y85.591 E.01059
G1 X105.688 Y85.554 E.00896
G1 X118.791 Y85.554 E.41084
G1 X119.075 Y85.591 E.00896
G1 X119.387 Y85.721 E.01059
G1 X119.655 Y85.926 E.01059
G1 X119.86 Y86.194 E.01059
G1 X119.989 Y86.506 E.01059
G1 X120.027 Y86.79 E.00896
G1 X120.027 Y99.893 E.41084
G1 X119.989 Y100.176 E.00896
G1 X119.86 Y100.488 E.01059
G1 X119.691 Y100.708 E.00871
M204 S1000
G1 X119.386 Y100.487 F10800
M204 S800
;TYPE:External perimeter
G1 F1200
G1 X119.196 Y100.632 E.00748
G1 X118.976 Y100.724 E.00748
G1 X118.766 Y100.751 E.00663
G1 X105.713 Y100.751 E.40929
G1 X105.503 Y100.724 E.00663
G1 X105.283 Y100.632 E.00748
G1 X105.094 Y100.487 E.00748
G1 X104.948 Y100.298 E.00748
G1 X104.857 Y100.078 E.00748
G1 X104.83 Y99.868 E.00663
G1 X104.83 Y86.814 E.40929
G1 X104.857 Y86.605 E.00663
M73 Q0 S112
G1 X104.948 Y86.384 E.00748
G1 X105.094 Y86.195 E.00748
G1 X105.283 Y86.05 E.00748
G1 X105.503 Y85.959 E.00748
G1 X105.713 Y85.931 E.00663
G1 X118.766 Y85.931 E.40929
G1 X118.976 Y85.959 E.00663
G1 X119.196 Y86.05 E.00748
G1 X119.386 Y86.195 E.00748
G1 X119.531 Y86.384 E.00748
G1 X119.622 Y86.605 E.00748
G1 X119.65 Y86.814 E.00663
G1 X119.65 Y99.868 E.40929
G1 X119.622 Y100.078 E.00663
G1 X119.531 Y100.298 E.00748
G1 X119.422 Y100.44 E.0056
M204 S1000
G1 X119.447 Y100.717 F10800
;WIPE_START
G1 F8640
G1 X119.196 Y100.632 E-.06854
G1 X118.976 Y100.724 E-.05507
G1 X118.766 Y100.751 E-.04881
G1 X116.222 Y100.751 E-.58758
;WIPE_END
G1 E-.04 F2100
G1 Z.6 F720
G1 X119.074 Y104.641 F10800
G1 Z.2 F720
G1 E.8 F2100
M204 S800
;TYPE:Perimeter
G1 F1200
G1 X119.387 Y104.771 E.01059
G1 X119.655 Y104.976 E.01059
G1 X119.86 Y105.244 E.01059
G1 X119.989 Y105.556 E.01059
G1 X120.027 Y105.84 E.00896
G1 X120.027 Y118.943 E.41084
G1 X119.989 Y119.226 E.00896
G1 X119.86 Y119.538 E.01059
G1 X119.655 Y119.806 E.01059
G1 X119.387 Y120.012 E.01059
G1 X119.074 Y120.141 E.01059
G1 X118.791 Y120.178 E.00896
G1 X105.688 Y120.178 E.41084
G1 X105.405 Y120.141 E.00896
G1 X105.093 Y120.012 E.01059
G1 X104.825 Y119.806 E.01059
G1 X104.619 Y119.538 E.01059
G1 X104.49 Y119.226 E.01059
G1 X104.453 Y118.943 E.00896
G1 X104.453 Y105.84 E.41084
G1 X104.49 Y105.556 E.00896
G1 X104.619 Y105.244 E.01059
G1 X104.825 Y104.976 E.01059
G1 X105.093 Y104.771 E.01059
G1 X105.405 Y104.641 E.01059
G1 X105.688 Y104.604 E.00896
G1 X118.791 Y104.604 E.41084
G1 X119.015 Y104.634 E.00708
M204 S1000
G1 X118.793 Y104.985 F10800
M204 S800
;TYPE:External perimeter
G1 F1200
G1 X118.976 Y105.009 E.00577
G1 X119.196 Y105.1 E.00748
G1 X119.386 Y105.245 E.00748
G1 X119.531 Y105.434 E.00748
G1 X119.622 Y105.655 E.00748
G1 X119.65 Y105.864 E.00663
G1 X119.65 Y118.918 E.40929
G1 X119.622 Y119.128 E.00663
G1 X119.531 Y119.348 E.00748
G1 X119.386 Y119.537 E.00748
G1 X119.196 Y119.682 E.00748
G1 X118.976 Y119.774 E.00748
G1 X118.766 Y119.801 E.00663
G1 X105.713 Y119.801 E.40929
G1 X105.503 Y119.774 E.00663
G1 X105.283 Y119.682 E.00748
G1 X105.094 Y119.537 E.00748
G1 X104.948 Y119.348 E.00748
G1 X104.857 Y119.128 E.00748
G1 X104.83 Y118.918 E.00663
G1 X104.83 Y105.864 E.40929
G1 X104.857 Y105.655 E.00663
G1 X104.948 Y105.434 E.00748
G1 X105.094 Y105.245 E.00748
G1 X105.283 Y105.1 E.00748
G1 X105.503 Y105.009 E.00748
G1 X105.713 Y104.981 E.00663
G1 X118.734 Y104.981 E.40826
M204 S1000
G1 X118.899 Y104.834 F10800
;WIPE_START
G1 F8640
G1 X118.976 Y105.009 E-.05631
G1 X119.196 Y105.1 E-.05507
G1 X119.386 Y105.245 E-.05507
G1 X119.531 Y105.434 E-.05506
G1 X119.622 Y105.655 E-.05507
G1 X119.65 Y105.864 E-.04881
G1 X119.65 Y107.747 E-.43461
;WIPE_END
G1 E-.04 F2100
G1 Z.6 F720
G1 X119.074 Y123.691 F10800
G1 Z.2 F720
M73 P0 R112
G1 E.8 F2100
M204 S800
;TYPE:Perimeter
G1 F1200
G1 X119.387 Y123.821 E.01059
G1 X119.655 Y124.026 E.01059
G1 X119.86 Y124.294 E.01059
G1 X119.989 Y124.606 E.01059
G1 X120.027 Y124.89 E.00896
G1 X120.027 Y137.993 E.41084
G1 X119.989 Y138.276 E.00896
G1 X119.86 Y138.588 E.01059
G1 X119.655 Y138.856 E.01059
G1 X119.387 Y139.062 E.01059
G1 X119.074 Y139.191 E.01059
G1 X118.791 Y139.228 E.00896
G1 X105.688 Y139.228 E.41084
G1 X105.405 Y139.191 E.00896
G1 X105.093 Y139.062 E.01059
G1 X104.825 Y138.856 E.01059
G1 X104.619 Y138.588 E.01059
G1 X104.49 Y138.276 E.01059
G1 X104.453 Y137.993 E.00896
G1 X104.453 Y124.89 E.41084
G1 X104.49 Y124.606 E.00896
G1 X104.619 Y124.294 E.01059
G1 X104.825 Y124.026 E.01059
G1 X105.093 Y123.821 E.01059
G1 X105.405 Y123.691 E.01059
G1 X105.688 Y123.654 E.00896
G1 X118.791 Y123.654 E.41084
G1 X119.015 Y123.684 E.00708
M204 S1000
G1 X118.976 Y124.059 F10800
M204 S800
;TYPE:External perimeter
G1 F1200
G1 X119.196 Y124.15 E.00748
G1 X119.386 Y124.295 E.00748
G1 X119.531 Y124.484 E.00748
G1 X119.622 Y124.705 E.00748
G1 X119.65 Y124.914 E.00663
G1 X119.65 Y137.968 E.40929
G1 X119.622 Y138.178 E.00663
G1 X119.531 Y138.398 E.00748
G1 X119.386 Y138.587 E.00748
G1 X119.196 Y138.732 E.00748
G1 X118.976 Y138.824 E.00748
G1 X118.766 Y138.851 E.00663
G1 X105.713 Y138.851 E.40929
G1 X105.503 Y138.824 E.00663
G1 X105.283 Y138.732 E.00748
G1 X105.094 Y138.587 E.00748
G1 X104.948 Y138.398 E.00748
G1 X104.857 Y138.178 E.00748
G1 X104.83 Y137.968 E.00663
G1 X104.83 Y124.914 E.40929
G1 X104.857 Y124.705 E.00663
G1 X104.948 Y124.484 E.00748
G1 X105.094 Y124.295 E.00748
G1 X105.283 Y124.15 E.00748
G1 X105.503 Y124.059 E.00748
G1 X105.713 Y124.031 E.00663
G1 X118.766 Y124.031 E.40929
G1 X118.917 Y124.051 E.00475
M204 S1000
G1 X119.145 Y123.89 F10800
;WIPE_START
G1 F8640
G1 X119.196 Y124.15 E-.06854
G1 X119.386 Y124.295 E-.05507
G1 X119.531 Y124.484 E-.05507
G1 X119.622 Y124.705 E-.05507
G1 X119.65 Y124.914 E-.04881
M73 Q1 S112
G1 X119.65 Y126.982 E-.47745
;WIPE_END
G1 E-.04 F2100
G1 Z.6 F720
G1 X119.074 Y142.741 F10800
G1 Z.2 F720
G1 E.8 F2100
M204 S800
;TYPE:Perimeter
G1 F1200
M73 P1 R112
G1 X119.387 Y142.871 E.01059
G1 X119.654 Y143.076 E.01059
G1 X119.86 Y143.344 E.01059
G1 X119.989 Y143.656 E.01059
G1 X120.027 Y143.94 E.00896
G1 X120.027 Y157.043 E.41084
G1 X119.989 Y157.326 E.00896
G1 X119.86 Y157.638 E.01059
G1 X119.654 Y157.906 E.01059
G1 X119.387 Y158.112 E.01059
G1 X119.074 Y158.241 E.01059
G1 X118.791 Y158.278 E.00896
G1 X105.688 Y158.278 E.41084
G1 X105.405 Y158.241 E.00896
G1 X105.093 Y158.112 E.01059
G1 X104.825 Y157.906 E.01059
G1 X104.619 Y157.638 E.01059
G1 X104.49 Y157.326 E.01059
G1 X104.453 Y157.043 E.00896
G1 X104.453 Y143.94 E.41084
G1 X104.49 Y143.656 E.00896
G1 X104.619 Y143.344 E.01059
G1 X104.825 Y143.076 E.01059
G1 X105.093 Y142.871 E.01059
G1 X105.405 Y142.741 E.01059
G1 X105.688 Y142.704 E.00896
G1 X118.791 Y142.704 E.41084
G1 X119.015 Y142.734 E.00708
M204 S1000
G1 X118.976 Y143.109 F10800
M204 S800
;TYPE:External perimeter
G1 F1200
G1 X119.196 Y143.2 E.00748
G1 X119.386 Y143.345 E.00748
G1 X119.531 Y143.534 E.00748
G1 X119.622 Y143.755 E.00748
G1 X119.65 Y143.964 E.00663
G1 X119.65 Y157.018 E.40929
G1 X119.622 Y157.228 E.00663
G1 X119.531 Y157.448 E.00748
G1 X119.386 Y157.637 E.00748
G1 X119.196 Y157.782 E.00748
G1 X118.976 Y157.874 E.00748
G1 X118.766 Y157.901 E.00663
G1 X105.713 Y157.901 E.40929
G1 X105.503 Y157.874 E.00663
G1 X105.283 Y157.782 E.00748
G1 X105.094 Y157.637 E.00748
G1 X104.948 Y157.448 E.00748
G1 X104.857 Y157.228 E.00748
G1 X104.83 Y157.018 E.00663
G1 X104.83 Y143.964 E.40929
G1 X104.857 Y143.755 E.00663
G1 X104.948 Y143.534 E.00748
G1 X105.094 Y143.345 E.00748
G1 X105.283 Y143.2 E.00748
G1 X105.503 Y143.109 E.00748
G1 X105.713 Y143.081 E.00663
G1 X118.766 Y143.081 E.40929
G1 X118.917 Y143.101 E.00475
M204 S1000
G1 X119.145 Y142.94 F10800
;WIPE_START
G1 F8640
G1 X119.196 Y143.2 E-.06854
G1 X119.386 Y143.345 E-.05506
G1 X119.531 Y143.534 E-.05507
G1 X119.622 Y143.755 E-.05507
G1 X119.65 Y143.964 E-.04881
G1 X119.65 Y146.032 E-.47745
;WIPE_END
G1 E-.04 F2100
G1 Z.6 F720
G1 X123.54 Y143.039 F10800
G1 Z.2 F720
G1 E.8 F2100
M204 S800
;TYPE:Perimeter
G1 F1200
G1 X123.503 Y142.755 E.00896
