; generated by PrusaSlicer 2.4.2+win64 on 2022-06-04 at 21:58:03 UTC


;
;
; 

; external perimeters extrusion width = 0.45mm
; perimeters extrusion width = 0.45mm
; infill extrusion width = 0.45mm
; solid infill extrusion width = 0.45mm
; top infill extrusion width = 0.40mm
; first layer extrusion width = 0.42mm

M73 P0 R156
M73 C110
M73 Q0 S156
M73 D111
M201 X1000 Y1000 Z200 E5000 ; sets maximum accelerations, mm/sec^2
M203 X200 Y200 Z12 E120 ; sets maximum feedrates, mm / sec
M204 P1250 R1250 T1250 ; sets acceleration (P, T) and retract acceleration (R), mm/sec^2
M205 X8.00 Y8.00 Z0.40 E4.50 ; sets the jerk limits, mm/sec
M205 S0 T0 ; sets the minimum extruding and travel feed rate, mm/sec
M107
;TYPE:Custom
M862.3 P "MK3S" ; printer model check
M862.1 P0.4 ; nozzle diameter check
M115 U3.11.0 ; tell printer latest fw version
G90 ; use absolute coordinates
M83 ; extruder relative mode
M104 S215 ; set extruder temp
M140 S60 ; set bed temp
M190 S60 ; wait for bed temp
M109 S215 ; wait for extruder temp
G28 W ; home all without mesh bed level
G80 ; mesh bed leveling
G1 Z0.2 F720
G1 Y-3 F1000 ; go outside print area
G92 E0
G1 X60 E9 F1000 ; intro line
G1 X100 E12.5 F1000 ; intro line
G92 E0
M221 S95

; Don't change E values below. Excessive value can damage the printer.
M907 E430 ; set extruder motor current
G21 ; set units to millimeters
G90 ; use absolute coordinates
M83 ; use relative distances for extrusion
M900 K0.05 ; Filament gcode LA 1.5
M900 K30 ; Filament gcode LA 1.0
M107
;LAYER_CHANGE
;Z:0.2
;HEIGHT:0.2
;BEFORE_LAYER_CHANGE
G92 E0.0
;0.2


G1 E-.8 F2100
G1 Z.4 F720
;AFTER_LAYER_CHANGE
;0.2
G1 X37.88 Y52.817 F10800
G1 Z.2 F720
G1 E.8 F2100
M204 S800
;TYPE:Skirt/Brim
;WIDTH:0.42
G1 F1200
G1 X39.55 Y51.828 E.06087
G1 X41 Y51.227 E.0492
G1 X43.095 Y50.704 E.06771
G1 X195.783 Y28.618 E4.83726
G1 X197.081 Y28.447 E.04103
M73 P0 R155
G1 X198.595 Y28.372 E.04753
G1 X205.186 Y28.377 E.20668
G1 X207.119 Y28.558 E.06087
G1 X208.645 Y28.925 E.0492
G1 X210.45 Y29.64 E.06087
G1 X212.422 Y30.849 E.07252
G1 X213.879 Y32.132 E.06087
G1 X215.117 Y33.627 E.06087
G1 X216.106 Y35.297 E.06087
G1 X216.707 Y36.747 E.0492
G1 X217.188 Y38.627 E.06087
G1 X217.37 Y40.56 E.06087
G1 X217.369 Y151.223 E3.46975
G1 X217.172 Y153.235 E.0634
M73 D110
G1 X216.775 Y154.82 E.05125
G1 X215.817 Y157.031 E.07553
G1 X214.695 Y158.712 E.0634
G1 X213.314 Y160.189 E.06339
G1 X212.033 Y161.205 E.05125
G1 X210.282 Y162.215 E.0634
G1 X208.203 Y162.984 E.06948
G1 X164.579 Y174.673 E1.41605
G1 X163.423 Y174.922 E.0371
G1 X161.376 Y175.095 E.0644
G1 X116.919 Y175.095 E1.39392
G1 X115.612 Y175.022 E.04103
G1 X114.185 Y174.785 E.04538
G1 X112.662 Y174.34 E.04973
G1 X40.743 Y147.999 E2.40145
G1 X38.872 Y147.124 E.06476
G1 X37.311 Y146.069 E.05908
G1 X35.928 Y144.789 E.05908
G1 X34.756 Y143.314 E.05909
G1 X33.821 Y141.677 E.05908
G1 X33.146 Y139.918 E.05908
G1 X32.746 Y138.077 E.05908
G1 X32.623 Y136.377 E.05343
G1 X32.623 Y62.934 E2.30276
G1 X32.753 Y61.183 E.05505
G1 X33.178 Y59.289 E.06087
G1 X34.063 Y57.152 E.07252
G1 X34.883 Y55.814 E.0492
G1 X36.121 Y54.319 E.06087
G1 X37.835 Y52.856 E.07064
M204 S1000
; printing object LEFT_1mm6.stl id:0 copy 0
;WIPE_START
G1 F8640
G1 X39.55 Y51.828 E-.46189
G1 X40.743 Y51.334 E-.29811
;WIPE_END
G1 E-.04 F2100
G1 Z.6 F720
G1 X126.989 Y94.688 F10800
G1 Z.2 F720
G1 E.8 F2100
M204 S800
;TYPE:Perimeter
G1 F1200
G1 X127.194 Y94.42 E.01059
G1 X127.462 Y94.214 E.01059
G1 X127.774 Y94.085 E.01059
G1 X128.058 Y94.047 E.00896
G1 X141.161 Y94.047 E.41084
G1 X141.444 Y94.085 E.00896
G1 X141.756 Y94.214 E.01059
G1 X142.024 Y94.42 E.01059
G1 X142.23 Y94.688 E.01059
G1 X142.359 Y95 E.01059
G1 X142.396 Y95.283 E.00896
G1 X142.396 Y108.386 E.41084
G1 X142.359 Y108.669 E.00896
G1 X142.23 Y108.982 E.01059
G1 X142.024 Y109.249 E.01059
G1 X141.756 Y109.455 E.01059
G1 X141.444 Y109.584 E.01059
G1 X141.161 Y109.622 E.00896
G1 X128.058 Y109.622 E.41084
G1 X127.774 Y109.584 E.00896
G1 X127.462 Y109.455 E.01059
G1 X127.194 Y109.249 E.01059
G1 X126.989 Y108.982 E.01059
G1 X126.859 Y108.669 E.01059
G1 X126.822 Y108.386 E.00896
G1 X126.822 Y95.283 E.41084
G1 X126.859 Y95 E.00896
G1 X126.966 Y94.743 E.00871
M204 S1000
G1 X127.318 Y94.878 F10800
M204 S800
;TYPE:External perimeter
G1 F1200
G1 X127.463 Y94.689 E.00748
G1 X127.652 Y94.543 E.00748
G1 X127.873 Y94.452 E.00748
G1 X128.082 Y94.425 E.00663
G1 X141.136 Y94.425 E.40929
G1 X141.346 Y94.452 E.00663
G1 X141.566 Y94.543 E.00748
G1 X141.755 Y94.689 E.00748
G1 X141.9 Y94.878 E.00748
G1 X141.992 Y95.098 E.00748
G1 X142.019 Y95.308 E.00663
G1 X142.019 Y108.361 E.40929
G1 X141.992 Y108.571 E.00663
G1 X141.9 Y108.791 E.00748
G1 X141.755 Y108.981 E.00748
G1 X141.566 Y109.126 E.00748
G1 X141.346 Y109.217 E.00748
G1 X141.136 Y109.245 E.00663
G1 X128.082 Y109.245 E.40929
G1 X127.873 Y109.217 E.00663
G1 X127.652 Y109.126 E.00748
G1 X127.463 Y108.981 E.00748
G1 X127.318 Y108.791 E.00748
G1 X127.227 Y108.571 E.00748
G1 X127.199 Y108.361 E.00663
G1 X127.199 Y95.308 E.40929
G1 X127.227 Y95.098 E.00663
G1 X127.295 Y94.933 E.0056
M204 S1000
G1 X127.199 Y94.671 F10800
;WIPE_START
G1 F8640
G1 X127.463 Y94.689 E-.06854
G1 X127.652 Y94.543 E-.05506
G1 X127.873 Y94.452 E-.05507
G1 X128.082 Y94.425 E-.04881
G1 X130.389 Y94.425 E-.53252
;WIPE_END
G1 E-.04 F2100
G1 Z.6 F720
G1 X127.774 Y113.135 F10800
G1 Z.2 F720
G1 E.8 F2100
M204 S800
;TYPE:Perimeter
G1 F1200
G1 X128.058 Y113.097 E.00896
G1 X141.161 Y113.097 E.41084
G1 X141.444 Y113.135 E.00896
G1 X141.756 Y113.264 E.01059
G1 X142.024 Y113.47 E.01059
G1 X142.23 Y113.738 E.01059
G1 X142.359 Y114.05 E.01059
G1 X142.396 Y114.333 E.00896
G1 X142.396 Y127.436 E.41084
G1 X142.359 Y127.719 E.00896
G1 X142.23 Y128.032 E.01059
G1 X142.024 Y128.299 E.01059
G1 X141.756 Y128.505 E.01059
G1 X141.444 Y128.634 E.01059
G1 X141.161 Y128.672 E.00896
G1 X128.058 Y128.672 E.41084
G1 X127.774 Y128.634 E.00896
G1 X127.462 Y128.505 E.01059
G1 X127.194 Y128.299 E.01059
G1 X126.989 Y128.032 E.01059
G1 X126.859 Y127.719 E.01059
G1 X126.822 Y127.436 E.00896
G1 X126.822 Y114.333 E.41084
G1 X126.859 Y114.05 E.00896
G1 X126.989 Y113.738 E.01059
G1 X127.194 Y113.47 E.01059
G1 X127.462 Y113.264 E.01059
G1 X127.719 Y113.158 E.00871
M204 S1000
G1 X127.873 Y113.502 F10800
M204 S800
;TYPE:External perimeter
G1 F1200
G1 X128.082 Y113.475 E.00663
G1 X141.136 Y113.475 E.40929
G1 X141.346 Y113.502 E.00663
M73 Q0 S155
G1 X141.566 Y113.593 E.00748
G1 X141.755 Y113.739 E.00748
G1 X141.9 Y113.928 E.00748
G1 X141.992 Y114.148 E.00748
G1 X142.019 Y114.358 E.00663
G1 X142.019 Y127.411 E.40929
G1 X141.992 Y127.621 E.00663
G1 X141.9 Y127.841 E.00748
G1 X141.755 Y128.031 E.00748
G1 X141.566 Y128.176 E.00748
G1 X141.346 Y128.267 E.00748
G1 X141.136 Y128.295 E.00663
G1 X128.082 Y128.295 E.40929
G1 X127.873 Y128.267 E.00663
G1 X127.652 Y128.176 E.00748
G1 X127.463 Y128.031 E.00748
G1 X127.318 Y127.841 E.00748
G1 X127.227 Y127.621 E.00748
G1 X127.199 Y127.411 E.00663
G1 X127.199 Y114.358 E.40929
G1 X127.227 Y114.148 E.00663
G1 X127.318 Y113.928 E.00748
G1 X127.463 Y113.739 E.00748
G1 X127.652 Y113.593 E.00748
G1 X127.817 Y113.525 E.0056
M204 S1000
G1 X127.928 Y113.298 F10800
;WIPE_START
G1 F8640
G1 X128.082 Y113.475 E-.06229
G1 X131.104 Y113.475 E-.69771
;WIPE_END
G1 E-.04 F2100
G1 Z.6 F720
G1 X127.774 Y132.185 F10800
G1 Z.2 F720
G1 E.8 F2100
M204 S800
;TYPE:Perimeter
G1 F1200
G1 X128.058 Y132.147 E.00896
G1 X141.161 Y132.147 E.41084
G1 X141.444 Y132.185 E.00896
G1 X141.756 Y132.314 E.01059
G1 X142.024 Y132.52 E.01059
G1 X142.23 Y132.788 E.01059
G1 X142.359 Y133.1 E.01059
G1 X142.396 Y133.383 E.00896
G1 X142.396 Y146.486 E.41084
G1 X142.359 Y146.769 E.00896
G1 X142.23 Y147.082 E.01059
G1 X142.024 Y147.349 E.01059
G1 X141.756 Y147.555 E.01059
G1 X141.444 Y147.684 E.01059
G1 X141.161 Y147.722 E.00896
G1 X128.058 Y147.722 E.41084
G1 X127.774 Y147.684 E.00896
G1 X127.462 Y147.555 E.01059
G1 X127.194 Y147.349 E.01059
G1 X126.989 Y147.082 E.01059
G1 X126.859 Y146.769 E.01059
G1 X126.822 Y146.486 E.00896
G1 X126.822 Y133.383 E.41084
G1 X126.859 Y133.1 E.00896
G1 X126.989 Y132.788 E.01059
G1 X127.194 Y132.52 E.01059
G1 X127.462 Y132.314 E.01059
G1 X127.719 Y132.208 E.00871
M204 S1000
G1 X127.873 Y132.552 F10800
M204 S800
;TYPE:External perimeter
G1 F1200
G1 X128.082 Y132.525 E.00663
G1 X141.136 Y132.525 E.40929
G1 X141.346 Y132.552 E.00663
G1 X141.566 Y132.643 E.00748
G1 X141.755 Y132.789 E.00748
G1 X141.9 Y132.978 E.00748
G1 X141.992 Y133.198 E.00748
G1 X142.019 Y133.408 E.00663
G1 X142.019 Y146.461 E.40929
G1 X141.992 Y146.671 E.00663
G1 X141.9 Y146.891 E.00748
G1 X141.755 Y147.081 E.00748
G1 X141.566 Y147.226 E.00748
G1 X141.346 Y147.317 E.00748
G1 X141.136 Y147.345 E.00663
G1 X128.082 Y147.345 E.40929
G1 X127.873 Y147.317 E.00663
G1 X127.652 Y147.226 E.00748
G1 X127.463 Y147.081 E.00748
G1 X127.318 Y146.891 E.00748
G1 X127.227 Y146.671 E.00748
G1 X127.199 Y146.461 E.00663
G1 X127.199 Y133.408 E.40929
G1 X127.227 Y133.198 E.00663
G1 X127.318 Y132.978 E.00748
G1 X127.463 Y132.789 E.00748
G1 X127.652 Y132.643 E.00748
G1 X127.817 Y132.575 E.0056
M204 S1000
G1 X127.927 Y132.348 F10800
;WIPE_START
G1 F8640
G1 X128.082 Y132.525 E-.06229
G1 X131.104 Y132.525 E-.69771
;WIPE_END
G1 E-.04 F2100
G1 Z.6 F720
G1 X127.774 Y151.235 F10800
G1 Z.2 F720
M73 C109
G1 E.8 F2100
M204 S800
;TYPE:Perimeter
G1 F1200
G1 X128.058 Y151.197 E.00896
G1 X141.161 Y151.197 E.41084
G1 X141.444 Y151.235 E.00896
G1 X141.756 Y151.364 E.01059
G1 X142.024 Y151.57 E.01059
G1 X142.23 Y151.838 E.01059
G1 X142.359 Y152.15 E.01059
G1 X142.396 Y152.433 E.00896
G1 X142.396 Y165.536 E.41084
G1 X142.359 Y165.819 E.00896
G1 X142.23 Y166.131 E.01059
G1 X142.024 Y166.399 E.01059
G1 X141.756 Y166.605 E.01059
G1 X141.444 Y166.734 E.01059
G1 X141.161 Y166.772 E.00896
G1 X128.058 Y166.772 E.41084
G1 X127.774 Y166.734 E.00896
G1 X127.462 Y166.605 E.01059
G1 X127.194 Y166.399 E.01059
G1 X126.989 Y166.131 E.01059
G1 X126.859 Y165.819 E.01059
G1 X126.822 Y165.536 E.00896
G1 X126.822 Y152.433 E.41084
G1 X126.859 Y152.15 E.00896
G1 X126.989 Y151.838 E.01059
G1 X127.194 Y151.57 E.01059
G1 X127.462 Y151.364 E.01059
G1 X127.719 Y151.258 E.00871
M204 S1000
G1 X127.873 Y151.602 F10800
M204 S800
;TYPE:External perimeter
G1 F1200
G1 X128.082 Y151.575 E.00663
G1 X141.136 Y151.575 E.40929
G1 X141.346 Y151.602 E.00663
G1 X141.566 Y151.693 E.00748
G1 X141.755 Y151.839 E.00748
G1 X141.9 Y152.028 E.00748
G1 X141.992 Y152.248 E.00748
G1 X142.019 Y152.458 E.00663
G1 X142.019 Y165.511 E.40929
G1 X141.992 Y165.721 E.00663
G1 X141.9 Y165.941 E.00748
G1 X141.755 Y166.131 E.00748
G1 X141.566 Y166.276 E.00748
G1 X141.346 Y166.367 E.00748
G1 X141.136 Y166.395 E.00663
G1 X128.082 Y166.395 E.40929
G1 X127.873 Y166.367 E.00663
G1 X127.652 Y166.276 E.00748
G1 X127.463 Y166.131 E.00748
G1 X127.318 Y165.941 E.00748
G1 X127.227 Y165.721 E.00748
G1 X127.199 Y165.511 E.00663
G1 X127.199 Y152.458 E.40929
G1 X127.227 Y152.248 E.00663
G1 X127.318 Y152.028 E.00748
G1 X127.463 Y151.839 E.00748
G1 X127.652 Y151.693 E.00748
G1 X127.817 Y151.625 E.0056
M204 S1000
G1 X127.928 Y151.398 F10800
;WIPE_START
G1 F8640
G1 X128.082 Y151.575 E-.06229
G1 X131.104 Y151.575 E-.69771
;WIPE_END
G1 E-.04 F2100
G1 Z.6 F720
G1 X145.909 Y147.387 F10800
G1 Z.2 F720
G1 E.8 F2100
M204 S800
;TYPE:Perimeter
G1 F1200
G1 X146.039 Y147.075 E.01059
G1 X146.244 Y146.807 E.01059
G1 X146.512 Y146.602 E.01059
G1 X146.824 Y146.472 E.01059
G1 X147.108 Y146.435 E.00896
G1 X160.211 Y146.435 E.41084
G1 X160.494 Y146.472 E.00896
G1 X160.806 Y146.602 E.01059
G1 X161.074 Y146.807 E.01059
G1 X161.28 Y147.075 E.01059
G1 X161.409 Y147.387 E.01059
G1 X161.446 Y147.67 E.00896
G1 X161.446 Y160.774 E.41084
G1 X161.409 Y161.057 E.00896
G1 X161.28 Y161.369 E.01059
G1 X161.074 Y161.637 E.01059
G1 X160.806 Y161.843 E.01059
G1 X160.494 Y161.972 E.01059
G1 X160.211 Y162.009 E.00896
G1 X147.108 Y162.009 E.41084
G1 X146.824 Y161.972 E.00896
G1 X146.512 Y161.843 E.01059
G1 X146.244 Y161.637 E.01059
G1 X146.039 Y161.369 E.01059
G1 X145.909 Y161.057 E.01059
G1 X145.872 Y160.774 E.00896
G1 X145.872 Y147.67 E.41084
G1 X145.902 Y147.447 E.00708
M204 S1000
G1 X146.277 Y147.486 F10800
M204 S800
;TYPE:External perimeter
G1 F1200
G1 X146.368 Y147.265 E.00748
G1 X146.513 Y147.076 E.00748
G1 X146.702 Y146.931 E.00748
G1 X146.923 Y146.84 E.00748
G1 X147.132 Y146.812 E.00663
G1 X160.186 Y146.812 E.40929
G1 X160.396 Y146.84 E.00663
G1 X160.616 Y146.931 E.00748
G1 X160.805 Y147.076 E.00748
G1 X160.95 Y147.265 E.00748
G1 X161.042 Y147.486 E.00748
G1 X161.069 Y147.695 E.00663
G1 X161.069 Y160.749 E.40929
G1 X161.042 Y160.959 E.00663
G1 X160.95 Y161.179 E.00748
G1 X160.805 Y161.368 E.00748
G1 X160.616 Y161.513 E.00748
G1 X160.396 Y161.604 E.00748
G1 X160.186 Y161.632 E.00663
G1 X147.132 Y161.632 E.40929
G1 X146.923 Y161.604 E.00663
G1 X146.702 Y161.513 E.00748
G1 X146.513 Y161.368 E.00748
G1 X146.368 Y161.179 E.00748
G1 X146.277 Y160.959 E.00748
G1 X146.249 Y160.749 E.00663
G1 X146.249 Y147.695 E.40929
G1 X146.269 Y147.545 E.00475
M204 S1000
G1 X146.108 Y147.317 F10800
;WIPE_START
G1 F8640
G1 X146.368 Y147.265 E-.06854
G1 X146.513 Y147.076 E-.05507
G1 X146.702 Y146.931 E-.05507
G1 X146.923 Y146.84 E-.05506
G1 X147.132 Y146.812 E-.04881
G1 X149.2 Y146.812 E-.47745
;WIPE_END
G1 E-.04 F2100
G1 Z.6 F720
G1 X146.824 Y142.922 F10800
G1 Z.2 F720
G1 E.8 F2100
M204 S800
;TYPE:Perimeter
G1 F1200
G1 X146.512 Y142.793 E.01059
G1 X146.244 Y142.587 E.01059
G1 X146.039 Y142.319 E.01059
G1 X145.909 Y142.007 E.01059
G1 X145.872 Y141.724 E.00896
G1 X145.872 Y128.62 E.41084
G1 X145.909 Y128.337 E.00896
G1 X146.039 Y128.025 E.01059
G1 X146.244 Y127.757 E.01059
G1 X146.512 Y127.552 E.01059
G1 X146.824 Y127.422 E.01059
G1 X147.108 Y127.385 E.00896
G1 X160.211 Y127.385 E.41084
G1 X160.494 Y127.422 E.00896
G1 X160.806 Y127.552 E.01059
G1 X161.074 Y127.757 E.01059
G1 X161.28 Y128.025 E.01059
G1 X161.409 Y128.337 E.01059
G1 X161.446 Y128.62 E.00896
G1 X161.446 Y141.724 E.41084
G1 X161.409 Y142.007 E.00896
G1 X161.28 Y142.319 E.01059
G1 X161.074 Y142.587 E.01059
G1 X160.806 Y142.793 E.01059
G1 X160.494 Y142.922 E.01059
G1 X160.211 Y142.959 E.00896
G1 X147.108 Y142.959 E.41084
G1 X146.884 Y142.93 E.00708
M204 S1000
M73 P0 R154
G1 X146.926 Y142.555 F10800
M204 S800
;TYPE:External perimeter
G1 F1200
G1 X146.702 Y142.463 E.00757
G1 X146.513 Y142.318 E.00748
G1 X146.368 Y142.129 E.00748
G1 X146.277 Y141.909 E.00748
G1 X146.249 Y141.699 E.00663
G1 X146.249 Y128.645 E.40929
G1 X146.277 Y128.436 E.00663
G1 X146.368 Y128.215 E.00748
G1 X146.513 Y128.026 E.00748
G1 X146.702 Y127.881 E.00748
G1 X146.923 Y127.79 E.00748
G1 X147.132 Y127.762 E.00663
G1 X160.186 Y127.762 E.40929
G1 X160.396 Y127.79 E.00663
G1 X160.616 Y127.881 E.00748
G1 X160.805 Y128.026 E.00748
G1 X160.95 Y128.215 E.00748
G1 X161.042 Y128.436 E.00748
G1 X161.069 Y128.645 E.00663
G1 X161.069 Y141.699 E.40929
G1 X161.042 Y141.909 E.00663
G1 X160.95 Y142.129 E.00748
G1 X160.805 Y142.318 E.00748
G1 X160.616 Y142.463 E.00748
G1 X160.396 Y142.554 E.00748
G1 X160.186 Y142.582 E.00663
G1 X147.132 Y142.582 E.40929
G1 X146.985 Y142.563 E.00465
M204 S1000
G1 X146.755 Y142.726 F10800
;WIPE_START
G1 F8640
G1 X146.702 Y142.463 E-.06927
G1 X146.513 Y142.318 E-.05506
G1 X146.368 Y142.129 E-.05507
G1 X146.277 Y141.909 E-.05507
G1 X146.249 Y141.699 E-.04881
G1 X146.249 Y139.634 E-.47673
;WIPE_END
G1 E-.04 F2100
G1 Z.6 F720
G1 X146.824 Y123.872 F10800
G1 Z.2 F720
G1 E.8 F2100
M204 S800
;TYPE:Perimeter
G1 F1200
G1 X146.512 Y123.743 E.01059
G1 X146.244 Y123.537 E.01059
G1 X146.039 Y123.269 E.01059
G1 X145.909 Y122.957 E.01059
G1 X145.872 Y122.674 E.00896
G1 X145.872 Y109.57 E.41084
G1 X145.909 Y109.287 E.00896
G1 X146.039 Y108.975 E.01059
G1 X146.244 Y108.707 E.01059
G1 X146.512 Y108.502 E.01059
G1 X146.824 Y108.372 E.01059
G1 X147.108 Y108.335 E.00896
G1 X160.211 Y108.335 E.41084
G1 X160.494 Y108.372 E.00896
G1 X160.806 Y108.502 E.01059
G1 X161.074 Y108.707 E.01059
G1 X161.28 Y108.975 E.01059
G1 X161.409 Y109.287 E.01059
G1 X161.446 Y109.57 E.00896
G1 X161.446 Y122.674 E.41084
G1 X161.409 Y122.957 E.00896
G1 X161.28 Y123.269 E.01059
G1 X161.074 Y123.537 E.01059
